X: 31
M:C|
L:1/8
K:Eb
u({c}B>.=A)|vB>eG>B E>GB,>E|G,>B,E>G B>Gc>B|\
|:u({G}F>.=E)|vF>ec>B =A>gf>e|d>ba>b =e>fc>d|\
e>c=A>e c>AF>E|C>{c}B=A>B F>dc>B|\
=e>fd>B =A>FE>C|B,>DF>d B2:|


